X: 10371
T: STIRLING CASTLE -- Strathspey
C: Arranged by W. B. Laybourn
R: strathspey
B: K\"ohler's Violin Repository, v.1, 1885 p.37 #1
F: http://www.archive.org/details/klersviolinrepos01edin
Z: 2011 John Chambers <jc:trillian.mit.edu>
M: C|
L: 1/8
K: D
uA, !segno!|\
D<D (F>D) (A>D) F>D | A,<A, (C>A,) (E>A,)C>E | D<D (F>D) (A>D) F>A | (3Bcd (3efg (3fed (3cBA |
D<D (F>D) (A>D) F>D | A,<A, (C>A,) (E>A,)C>E | D<D (F>D) (A>D) F>A | (3Bcd (3efg f<d d :|
|: uA |\
d<d (f>d) (g>e) f>d | (g>e) (f>d) (3efd (3cBA | d<d (f>d) (g>e) f>d | (3Bcd (3efg f<dd>A |
d<d (f>d) (g>e) f>d | (g>e)(f>d) (3efd (3cBA | (3fga (3gfe (3def (3edc | (3BcB (3dcB (3ABA "_Segue Reel."(3GFE !segno! :|

%%sep 2 1 500

